X: 44
T:Le Porchier
M:4/4
L:1/4
R:Scottiche/marche/valse
O:France
K:G
d2A2AGF2|d2A2AGF2|
M:6/8
EGGF3:|\
M:4/4
|:E2G2F2A2|\
M:6/8
BAG AGF|\
M:4/4
E2G2F2A2|\
M:6/8
BAGF3:||
